svg/fluentui-system-icons/ic_fluent_home_split_20_regular.svg

<svg width="20" height="20" viewBox="0 0 20 20" fill="none" xmlns="http://www.w3.org/2000/svg">
<path d="M11.0034 2.38114C10.433 1.86775 9.56702 1.86775 8.99657 2.38114L3.49657 7.33097C3.18049 7.61543 3 8.02069 3 8.44593V15.5006C3 16.329 3.67157 17.0006 4.5 17.0006H15.5C16.3284 17.0006 17 16.329 17 15.5006V8.44593C17 8.02069 16.8195 7.61543 16.5034 7.33097L11.0034 2.38114ZM9.66552 3.12444C9.85567 2.95331 10.1443 2.95331 10.3345 3.12444L15.8345 8.07428C15.9398 8.1691 16 8.30418 16 8.44593V15.5006C16 15.7767 15.7761 16.0006 15.5 16.0006H4.5C4.22386 16.0006 4 15.7767 4 15.5006V8.44593C4 8.30418 4.06016 8.1691 4.16552 8.07428L9.66552 3.12444ZM10.5 13.5004C10.5 13.2242 10.2761 13.0004 10 13.0004C9.72386 13.0004 9.5 13.2242 9.5 13.5004V14.5004C9.5 14.7765 9.72386 15.0004 10 15.0004C10.2761 15.0004 10.5 14.7765 10.5 14.5004V13.5004ZM10 9.00036C10.2761 9.00036 10.5 9.22422 10.5 9.50036V10.5004C10.5 10.7765 10.2761 11.0004 10 11.0004C9.72386 11.0004 9.5 10.7765 9.5 10.5004V9.50036C9.5 9.22422 9.72386 9.00036 10 9.00036ZM10.5 5.50036C10.5 5.22422 10.2761 5.00036 10 5.00036C9.72386 5.00036 9.5 5.22422 9.5 5.50036V6.50036C9.5 6.7765 9.72386 7.00036 10 7.00036C10.2761 7.00036 10.5 6.7765 10.5 6.50036V5.50036Z" fill="#212121"/>
</svg>

<svg xmlns="http://www.w3.org/2000/svg" width="20" height="20"><path d="M11.003 2.381a1.5 1.5 0 0 0-2.006 0l-5.5 4.95A1.5 1.5 0 0 0 3 8.446V15.5A1.5 1.5 0 0 0 4.5 17h11a1.5 1.5 0 0 0 1.5-1.5V8.446a1.5 1.5 0 0 0-.497-1.115l-5.5-4.95Zm-1.337.743a.5.5 0 0 1 .668 0l5.5 4.95a.5.5 0 0 1 .166.372V15.5a.5.5 0 0 1-.5.5h-11a.5.5 0 0 1-.5-.5V8.446a.5.5 0 0 1 .166-.372l5.5-4.95ZM10.5 13.5a.5.5 0 1 0-1 0v1a.5.5 0 0 0 1 0v-1ZM10 9a.5.5 0 0 1 .5.5v1a.5.5 0 0 1-1 0v-1A.5.5 0 0 1 10 9Zm.5-3.5a.5.5 0 0 0-1 0v1a.5.5 0 0 0 1 0v-1Z"/></svg>
